images/indikatorenset/5205.svg

<?xml version="1.0" standalone="no"?><!DOCTYPE svg PUBLIC "-//W3C//DTD SVG 1.1//EN" "http://www.w3.org/Graphics/SVG/1.1/DTD/svg11.dtd"><svg xmlns:xlink="http://www.w3.org/1999/xlink" version="1.1" class="highcharts-root" style="font-family:arial;font-size:12px;" xmlns="http://www.w3.org/2000/svg" width="485" height="415"><desc>Created with Highstock 5.0.14</desc><defs><clipPath id="highcharts-ndvry2i-6"><rect x="0" y="0" width="413" height="219" fill="none"></rect></clipPath><clipPath id="highcharts-ndvry2i-7"><rect x="0" y="0" width="413" height="219" fill="none"></rect></clipPath></defs><rect fill="#fbfbfb" class="highcharts-background" x="0" y="0" width="485" height="415" rx="0" ry="0"></rect><rect fill="none" class="highcharts-plot-background" x="62" y="130" width="413" height="219"></rect><g class="highcharts-pane-group"></g><g class="highcharts-grid highcharts-xaxis-grid "><path fill="none" class="highcharts-grid-line" d="M 83.5 130 L 83.5 349" opacity="1"></path><path fill="none" class="highcharts-grid-line" d="M 120.5 130 L 120.5 349" opacity="1"></path><path fill="none" class="highcharts-grid-line" d="M 157.5 130 L 157.5 349" opacity="1"></path><path fill="none" class="highcharts-grid-line" d="M 194.5 130 L 194.5 349" opacity="1"></path><path fill="none" class="highcharts-grid-line" d="M 231.5 130 L 231.5 349" opacity="1"></path><path fill="none" class="highcharts-grid-line" d="M 268.5 130 L 268.5 349" opacity="1"></path><path fill="none" class="highcharts-grid-line" d="M 304.5 130 L 304.5 349" opacity="1"></path><path fill="none" class="highcharts-grid-line" d="M 341.5 130 L 341.5 349" opacity="1"></path><path fill="none" class="highcharts-grid-line" d="M 378.5 130 L 378.5 349" opacity="1"></path><path fill="none" class="highcharts-grid-line" d="M 415.5 130 L 415.5 349" opacity="1"></path><path fill="none" class="highcharts-grid-line" d="M 452.5 130 L 452.5 349" opacity="1"></path></g><g class="highcharts-grid highcharts-yaxis-grid "><path fill="none" stroke="#B9CFD7" stroke-width="0.5" class="highcharts-grid-line" d="M 62 349.25 L 475 349.25" opacity="1"></path><path fill="none" stroke="#B9CFD7" stroke-width="0.5" class="highcharts-grid-line" d="M 62 294.25 L 475 294.25" opacity="1"></path><path fill="none" stroke="#B9CFD7" stroke-width="0.5" class="highcharts-grid-line" d="M 62 240.25 L 475 240.25" opacity="1"></path><path fill="none" stroke="#B9CFD7" stroke-width="0.5" class="highcharts-grid-line" d="M 62 185.25 L 475 185.25" opacity="1"></path><path fill="none" stroke="#B9CFD7" stroke-width="0.5" class="highcharts-grid-line" d="M 62 129.75 L 475 129.75" opacity="1"></path></g><rect fill="none" class="highcharts-plot-border" x="62" y="130" width="413" height="219"></rect><g class="highcharts-axis highcharts-xaxis "><path fill="none" class="highcharts-axis-line" stroke="#B9CFD7" stroke-width="0.5" d="M 62 349.25 L 475 349.25"></path></g><g class="highcharts-axis highcharts-yaxis "><path fill="none" class="highcharts-axis-line" d="M 62 130 L 62 349"></path></g><g class="highcharts-series-group"><g class="highcharts-series highcharts-series-0 highcharts-column-series highcharts-color-undefined " transform="translate(62,130) scale(1 1)" clip-path="url(#highcharts-ndvry2i-7)"><rect x="15" y="44" width="15" height="31" fill="#246370" class="highcharts-point"></rect><rect x="51" y="42" width="15" height="30" fill="#246370" class="highcharts-point"></rect><rect x="88" y="34" width="15" height="34" fill="#246370" class="highcharts-point"></rect><rect x="125" y="38" width="15" height="32" fill="#246370" class="highcharts-point"></rect><rect x="162" y="37" width="15" height="33" fill="#246370" class="highcharts-point"></rect><rect x="199" y="33" width="15" height="34" fill="#246370" class="highcharts-point"></rect><rect x="236" y="34" width="15" height="33" fill="#246370" class="highcharts-point"></rect><rect x="273" y="28" width="15" height="33" fill="#246370" class="highcharts-point"></rect><rect x="310" y="37" width="15" height="30" fill="#246370" class="highcharts-point"></rect><rect x="347" y="33" width="15" height="34" fill="#246370" class="highcharts-point"></rect><rect x="383" y="29" width="15" height="36" fill="#246370" class="highcharts-point"></rect></g><g class="highcharts-markers highcharts-series-0 highcharts-column-series highcharts-color-undefined " transform="translate(62,130) scale(1 1)" clip-path="none"></g><g class="highcharts-series highcharts-series-1 highcharts-column-series highcharts-color-undefined " transform="translate(62,130) scale(1 1)" clip-path="url(#highcharts-ndvry2i-7)"><rect x="15" y="132" width="15" height="38" fill="#007A2F" class="highcharts-point highcharts-negative"></rect><rect x="51" y="132" width="15" height="40" fill="#007A2F" class="highcharts-point highcharts-negative"></rect><rect x="88" y="132" width="15" height="39" fill="#007A2F" class="highcharts-point highcharts-negative"></rect><rect x="125" y="132" width="15" height="38" fill="#007A2F" class="highcharts-point highcharts-negative"></rect><rect x="162" y="133" width="15" height="36" fill="#007A2F" class="highcharts-point highcharts-negative"></rect><rect x="199" y="134" width="15" height="38" fill="#007A2F" class="highcharts-point highcharts-negative"></rect><rect x="236" y="134" width="15" height="36" fill="#007A2F" class="highcharts-point highcharts-negative"></rect><rect x="273" y="136" width="15" height="39" fill="#007A2F" class="highcharts-point highcharts-negative"></rect><rect x="310" y="136" width="15" height="38" fill="#007A2F" class="highcharts-point highcharts-negative"></rect><rect x="347" y="138" width="15" height="39" fill="#007A2F" class="highcharts-point highcharts-negative"></rect><rect x="383" y="138" width="15" height="41" fill="#007A2F" class="highcharts-point highcharts-negative"></rect></g><g class="highcharts-markers highcharts-series-1 highcharts-column-series highcharts-color-undefined " transform="translate(62,130) scale(1 1)" clip-path="none"></g><g class="highcharts-series highcharts-series-2 highcharts-column-series highcharts-color-undefined " transform="translate(62,130) scale(1 1)" clip-path="url(#highcharts-ndvry2i-7)"><rect x="15" y="75" width="15" height="36" fill="#A8C3CA" class="highcharts-point"></rect><rect x="51" y="72" width="15" height="39" fill="#A8C3CA" class="highcharts-point"></rect><rect x="88" y="68" width="15" height="43" fill="#A8C3CA" class="highcharts-point"></rect><rect x="125" y="70" width="15" height="41" fill="#A8C3CA" class="highcharts-point"></rect><rect x="162" y="70" width="15" height="41" fill="#A8C3CA" class="highcharts-point"></rect><rect x="199" y="67" width="15" height="44" fill="#A8C3CA" class="highcharts-point"></rect><rect x="236" y="67" width="15" height="44" fill="#A8C3CA" class="highcharts-point"></rect><rect x="273" y="61" width="15" height="50" fill="#A8C3CA" class="highcharts-point"></rect><rect x="310" y="67" width="15" height="44" fill="#A8C3CA" class="highcharts-point"></rect><rect x="347" y="67" width="15" height="44" fill="#A8C3CA" class="highcharts-point"></rect><rect x="383" y="65" width="15" height="46" fill="#A8C3CA" class="highcharts-point"></rect></g><g class="highcharts-markers highcharts-series-2 highcharts-column-series highcharts-color-undefined " transform="translate(62,130) scale(1 1)" clip-path="none"></g><g class="highcharts-series highcharts-series-3 highcharts-column-series highcharts-color-undefined " transform="translate(62,130) scale(1 1)" clip-path="url(#highcharts-ndvry2i-7)"><rect x="15" y="111" width="15" height="21" fill="#8AB77D" class="highcharts-point highcharts-negative"></rect><rect x="51" y="111" width="15" height="21" fill="#8AB77D" class="highcharts-point highcharts-negative"></rect><rect x="88" y="111" width="15" height="21" fill="#8AB77D" class="highcharts-point highcharts-negative"></rect><rect x="125" y="111" width="15" height="21" fill="#8AB77D" class="highcharts-point highcharts-negative"></rect><rect x="162" y="111" width="15" height="22" fill="#8AB77D" class="highcharts-point highcharts-negative"></rect><rect x="199" y="111" width="15" height="23" fill="#8AB77D" class="highcharts-point highcharts-negative"></rect><rect x="236" y="111" width="15" height="23" fill="#8AB77D" class="highcharts-point highcharts-negative"></rect><rect x="273" y="111" width="15" height="25" fill="#8AB77D" class="highcharts-point highcharts-negative"></rect><rect x="310" y="111" width="15" height="25" fill="#8AB77D" class="highcharts-point highcharts-negative"></rect><rect x="347" y="111" width="15" height="27" fill="#8AB77D" class="highcharts-point highcharts-negative"></rect><rect x="383" y="111" width="15" height="27" fill="#8AB77D" class="highcharts-point highcharts-negative"></rect></g><g class="highcharts-markers highcharts-series-3 highcharts-column-series highcharts-color-undefined " transform="translate(62,130) scale(1 1)" clip-path="none"></g><g class="highcharts-series highcharts-series-4 highcharts-line-series highcharts-color-undefined " transform="translate(62,130) scale(1 1)" clip-path="url(#highcharts-ndvry2i-7)"><path fill="none" d="M 22.124999999997 107.3538 L 58.999999999998 106.439475 L 95.874999999998 98.36385 L 132.75 100.37865000000001 L 169.625 108.060075 L 206.5 100.3677 L 243.375 99.98445000000001 L 280.25 99.102975 L 317.125 105.158325 L 354 105.6018 L 390.875 104.56155" class="highcharts-graph" stroke="#000000" stroke-width="2" stroke-linejoin="round" stroke-linecap="round"></path></g><g class="highcharts-markers highcharts-series-4 highcharts-line-series highcharts-color-undefined " transform="translate(62,130) scale(1 1)" clip-path="none"></g></g><text x="10" text-anchor="start" class="highcharts-title" style="color:#000000;font-size:14px;font-weight:bold;fill:#000000;" y="21"><tspan>Wanderungssaldo</tspan></text><g class="highcharts-legend" transform="translate(50,50)"><rect fill="none" class="highcharts-legend-box" rx="0" ry="0" x="0" y="0" width="396" height="68" visibility="visible"></rect><g><g><g class="highcharts-legend-item highcharts-column-series highcharts-color-undefined highcharts-series-0" transform="translate(8,3)"><text x="21" style="color:#333333;font-size:12px;font-weight:normal;cursor:pointer;fill:#333333;" text-anchor="start" y="15"><tspan>Zuzug aus der Schweiz</tspan></text><rect x="2" y="4" width="12" height="12" fill="#246370" class="highcharts-point"></rect></g><g class="highcharts-legend-item highcharts-column-series highcharts-color-undefined highcharts-series-1" transform="translate(208,3)"><text x="21" y="15" style="color:#333333;font-size:12px;font-weight:normal;cursor:pointer;fill:#333333;" text-anchor="start"><tspan>Wegzug in die Schweiz</tspan></text><rect x="2" y="4" width="12" height="12" fill="#007A2F" class="highcharts-point"></rect></g><g class="highcharts-legend-item highcharts-column-series highcharts-color-undefined highcharts-series-2" transform="translate(8,22)"><text x="21" y="15" style="color:#333333;font-size:12px;font-weight:normal;cursor:pointer;fill:#333333;" text-anchor="start"><tspan>Zuzug aus Ausland</tspan></text><rect x="2" y="4" width="12" height="12" fill="#A8C3CA" class="highcharts-point"></rect></g><g class="highcharts-legend-item highcharts-column-series highcharts-color-undefined highcharts-series-3" transform="translate(208,22)"><text x="21" y="15" style="color:#333333;font-size:12px;font-weight:normal;cursor:pointer;fill:#333333;" text-anchor="start"><tspan>Wegzug ins Ausland</tspan></text><rect x="2" y="4" width="12" height="12" fill="#8AB77D" class="highcharts-point"></rect></g><g class="highcharts-legend-item highcharts-line-series highcharts-color-undefined highcharts-series-4" transform="translate(8,41)"><path fill="none" d="M 0 11 L 16 11" class="highcharts-graph" stroke="#000000" stroke-width="2"></path><text x="21" y="15" style="color:#333333;font-size:12px;font-weight:normal;cursor:pointer;fill:#333333;" text-anchor="start"><tspan>Wanderungssaldo Total</tspan></text></g></g></g></g><g class="highcharts-axis-labels highcharts-xaxis-labels "><text x="84.124999999997" style="color:#000000;cursor:default;font-size:11px;fill:#000000;" text-anchor="middle" transform="translate(0,0)" y="368" opacity="1">2006</text><text x="120.9999999999976" style="color:#000000;cursor:default;font-size:11px;fill:#000000;" text-anchor="middle" transform="translate(0,0)" y="368" opacity="1">2007</text><text x="157.87499999999818" style="color:#000000;cursor:default;font-size:11px;fill:#000000;" text-anchor="middle" transform="translate(0,0)" y="368" opacity="1">2008</text><text x="194.7499999999988" style="color:#000000;cursor:default;font-size:11px;fill:#000000;" text-anchor="middle" transform="translate(0,0)" y="368" opacity="1">2009</text><text x="231.62499999999937" style="color:#000000;cursor:default;font-size:11px;fill:#000000;" text-anchor="middle" transform="translate(0,0)" y="368" opacity="1">2010</text><text x="268.5" style="color:#000000;cursor:default;font-size:11px;fill:#000000;" text-anchor="middle" transform="translate(0,0)" y="368" opacity="1">2011</text><text x="305.37500000000057" style="color:#000000;cursor:default;font-size:11px;fill:#000000;" text-anchor="middle" transform="translate(0,0)" y="368" opacity="1">2012</text><text x="342.2500000000012" style="color:#000000;cursor:default;font-size:11px;fill:#000000;" text-anchor="middle" transform="translate(0,0)" y="368" opacity="1">2013</text><text x="379.12500000000176" style="color:#000000;cursor:default;font-size:11px;fill:#000000;" text-anchor="middle" transform="translate(0,0)" y="368" opacity="1">2014</text><text x="416.0000000000024" style="color:#000000;cursor:default;font-size:11px;fill:#000000;" text-anchor="middle" transform="translate(0,0)" y="368" opacity="1">2015</text><text x="452.87500000000296" style="color:#000000;cursor:default;font-size:11px;fill:#000000;" text-anchor="middle" transform="translate(0,0)" y="368" opacity="1">2016</text></g><g class="highcharts-axis-labels highcharts-yaxis-labels "><text x="47" style="color:#000000;cursor:default;font-size:11px;fill:#000000;" text-anchor="end" transform="translate(0,0)" y="354" opacity="1"><tspan>-20 000</tspan></text><text x="47" style="color:#000000;cursor:default;font-size:11px;fill:#000000;" text-anchor="end" transform="translate(0,0)" y="299" opacity="1"><tspan>-10 000</tspan></text><text x="47" style="color:#000000;cursor:default;font-size:11px;fill:#000000;" text-anchor="end" transform="translate(0,0)" y="244" opacity="1"><tspan>0</tspan></text><text x="47" style="color:#000000;cursor:default;font-size:11px;fill:#000000;" text-anchor="end" transform="translate(0,0)" y="189" opacity="1"><tspan>10 000</tspan></text><text x="47" style="color:#000000;cursor:default;font-size:11px;fill:#000000;" text-anchor="end" transform="translate(0,0)" y="135" opacity="1"><tspan>20 000</tspan></text></g><text x="10" class="highcharts-credits" text-anchor="start" style="cursor:default;color:#000000;font-size:10px;fill:#000000;" y="400"><tspan>Quelle: Statistisches Amt Basel-Stadt, Bevölkerungsstatistik</tspan></text></svg>

<svg class="highcharts-root" xmlns="http://www.w3.org/2000/svg" width="485" height="415" font-family="arial" font-size="12">
    <defs>
        <clipPath id="a">
            <path fill="none" d="M0 0h413v219H0z"/>
        </clipPath>
    </defs>
    <rect fill="#fbfbfb" class="highcharts-background" width="485" height="415" rx="0" ry="0"/>
    <path fill="none" class="highcharts-plot-background" d="M62 130h413v219H62z"/>
    <g class="highcharts-grid highcharts-xaxis-grid">
        <path fill="none" class="highcharts-grid-line" d="M83.5 130v219m37-219v219m37-219v219m37-219v219m37-219v219m37-219v219m36-219v219m37-219v219m37-219v219m37-219v219m37-219v219"/>
    </g>
    <g class="highcharts-grid highcharts-yaxis-grid">
        <path fill="none" stroke="#B9CFD7" stroke-width=".5" class="highcharts-grid-line" d="M62 349.25h413m-413-55h413m-413-54h413m-413-55h413m-413-55.5h413"/>
    </g>
    <path fill="none" class="highcharts-plot-border" d="M62 130h413v219H62z"/>
    <g class="highcharts-axis highcharts-xaxis">
        <path fill="none" class="highcharts-axis-line" stroke="#B9CFD7" stroke-width=".5" d="M62 349.25h413"/>
    </g>
    <g class="highcharts-axis highcharts-yaxis">
        <path fill="none" class="highcharts-axis-line" d="M62 130v219"/>
    </g>
    <g class="highcharts-series-group">
        <g class="highcharts-series highcharts-series-0 highcharts-column-series highcharts-color-undefined" transform="translate(62 130)" clip-path="url(#a)">
            <path fill="#246370" class="highcharts-point" d="M15 44h15v31H15zm36-2h15v30H51zm37-8h15v34H88zm37 4h15v32h-15zm37-1h15v33h-15zm37-4h15v34h-15zm37 1h15v33h-15zm37-6h15v33h-15zm37 9h15v30h-15zm37-4h15v34h-15zm36-4h15v36h-15z"/>
        </g>
        <g class="highcharts-series highcharts-series-1 highcharts-column-series highcharts-color-undefined" transform="translate(62 130)" clip-path="url(#a)">
            <path fill="#007A2F" class="highcharts-point highcharts-negative" d="M15 132h15v38H15zm36 0h15v40H51zm37 0h15v39H88zm37 0h15v38h-15zm37 1h15v36h-15zm37 1h15v38h-15zm37 0h15v36h-15zm37 2h15v39h-15zm37 0h15v38h-15zm37 2h15v39h-15zm36 0h15v41h-15z"/>
        </g>
        <g class="highcharts-series highcharts-series-2 highcharts-column-series highcharts-color-undefined" transform="translate(62 130)" clip-path="url(#a)">
            <path fill="#A8C3CA" class="highcharts-point" d="M15 75h15v36H15zm36-3h15v39H51zm37-4h15v43H88zm37 2h15v41h-15zm37 0h15v41h-15zm37-3h15v44h-15zm37 0h15v44h-15zm37-6h15v50h-15zm37 6h15v44h-15zm37 0h15v44h-15zm36-2h15v46h-15z"/>
        </g>
        <g class="highcharts-series highcharts-series-3 highcharts-column-series highcharts-color-undefined" transform="translate(62 130)" clip-path="url(#a)">
            <path fill="#8AB77D" class="highcharts-point highcharts-negative" d="M15 111h15v21H15zm36 0h15v21H51zm37 0h15v21H88zm37 0h15v21h-15zm37 0h15v22h-15zm37 0h15v23h-15zm37 0h15v23h-15zm37 0h15v25h-15zm37 0h15v25h-15zm37 0h15v27h-15zm36 0h15v27h-15z"/>
        </g>
        <g class="highcharts-series highcharts-series-4 highcharts-line-series highcharts-color-undefined" transform="translate(62 130)" clip-path="url(#a)">
            <path fill="none" d="M22.125 107.354L59 106.439l36.875-8.075 36.875 2.015 36.875 7.681 36.875-7.692 36.875-.384 36.875-.881 36.875 6.055 36.875.444 36.875-1.04" class="highcharts-graph" stroke="#000" stroke-width="2" stroke-linejoin="round" stroke-linecap="round"/>
        </g>
    </g>
    <text x="10" class="highcharts-title" y="21" color="#000" font-size="14" font-weight="700">
        <tspan>Wanderungssaldo</tspan>
    </text>
    <g class="highcharts-legend" transform="translate(50 50)">
        <rect fill="none" class="highcharts-legend-box" rx="0" ry="0" width="396" height="68"/>
        <g class="highcharts-legend-item highcharts-column-series highcharts-color-undefined highcharts-series-0">
            <text x="21" y="15" color="#333" font-weight="400" cursor="pointer" fill="#333" transform="translate(8 3)">
                <tspan>Zuzug aus der Schweiz</tspan>
            </text>
            <path fill="#246370" class="highcharts-point" d="M10 7h12v12H10z"/>
        </g>
        <g class="highcharts-legend-item highcharts-column-series highcharts-color-undefined highcharts-series-1">
            <text x="21" y="15" color="#333" font-weight="400" cursor="pointer" fill="#333" transform="translate(208 3)">
                <tspan>Wegzug in die Schweiz</tspan>
            </text>
            <path fill="#007A2F" class="highcharts-point" d="M210 7h12v12h-12z"/>
        </g>
        <g class="highcharts-legend-item highcharts-column-series highcharts-color-undefined highcharts-series-2">
            <text x="21" y="15" color="#333" font-weight="400" cursor="pointer" fill="#333" transform="translate(8 22)">
                <tspan>Zuzug aus Ausland</tspan>
            </text>
            <path fill="#A8C3CA" class="highcharts-point" d="M10 26h12v12H10z"/>
        </g>
        <g class="highcharts-legend-item highcharts-column-series highcharts-color-undefined highcharts-series-3">
            <text x="21" y="15" color="#333" font-weight="400" cursor="pointer" fill="#333" transform="translate(208 22)">
                <tspan>Wegzug ins Ausland</tspan>
            </text>
            <path fill="#8AB77D" class="highcharts-point" d="M210 26h12v12h-12z"/>
        </g>
        <g class="highcharts-legend-item highcharts-line-series highcharts-color-undefined highcharts-series-4">
            <path fill="none" d="M8 52h16" class="highcharts-graph" stroke="#000" stroke-width="2"/>
            <text x="21" y="15" color="#333" font-weight="400" cursor="pointer" fill="#333" transform="translate(8 41)">
                <tspan>Wanderungssaldo Total</tspan>
            </text>
        </g>
    </g>
    <g class="highcharts-axis-labels highcharts-xaxis-labels" text-anchor="middle" color="#000" cursor="default" font-size="11">
        <text x="84.125" y="368">
            2006
        </text>
        <text x="121" y="368">
            2007
        </text>
        <text x="157.875" y="368">
            2008
        </text>
        <text x="194.75" y="368">
            2009
        </text>
        <text x="231.625" y="368">
            2010
        </text>
        <text x="268.5" y="368">
            2011
        </text>
        <text x="305.375" y="368">
            2012
        </text>
        <text x="342.25" y="368">
            2013
        </text>
        <text x="379.125" y="368">
            2014
        </text>
        <text x="416" y="368">
            2015
        </text>
        <text x="452.875" y="368">
            2016
        </text>
    </g>
    <g class="highcharts-axis-labels highcharts-yaxis-labels" text-anchor="end" color="#000" cursor="default" font-size="11">
        <text x="47" y="354">
            <tspan>-20 000</tspan>
        </text>
        <text x="47" y="299">
            <tspan>-10 000</tspan>
        </text>
        <text x="47" y="244">
            <tspan>0</tspan>
        </text>
        <text x="47" y="189">
            <tspan>10 000</tspan>
        </text>
        <text x="47" y="135">
            <tspan>20 000</tspan>
        </text>
    </g>
    <text x="10" class="highcharts-credits" y="400" cursor="default" color="#000" font-size="10">
        <tspan>Quelle: Statistisches Amt Basel-Stadt, Bevölkerungsstatistik</tspan>
    </text>
</svg>
